X: 282
M: C|
L: 1/8
K: D
(AB/c/) |\
d2dd dgec | d2cB A2dc | BAGF GBAG | F2E2 D2 (AB/c/) |\
d2dd dged | c2d2 e3d | cecA B2A^G | A2AA AA BA/^G/ | A6 :|
|: (dc/d/) |\
e2ee e2f2 | edcd Te2 de/f/ | ggfe ffed | edcB A2AA |\

